;FLAVOR:RepRap
;TIME:2481
;Filament used: 3.14116m
;Layer height: 0.2
;Generated with Cura_SteamEngine 3.4.1
T0
M190 S50
M104 S200
M109 S200
M82 ;absolute extrusion mode
G28 ;Home
G1 Z15.0 F6000 ;Move the platform down 15mm
;Prime the extruder
G92 E0
G1 F200 E3
G92 E0
M83 ;relative extrusion mode
G1 F3600 E-2
;LAYER_COUNT:27
;LAYER:0
M107
G0 F3600 X98.151 Y77.926 Z0.45
;TYPE:SKIRT
G1 F3600 E2
G1 F1800 X98.444 Y77.561 E0.02802
G1 X98.561 Y77.444 E0.00991
G1 X98.885 Y77.178 E0.0251
G1 X99.252 Y76.977 E0.02505
G1 X99.652 Y76.85 E0.02513
G1 X100.117 Y76.8 E0.028
G1 X119.883 Y76.8 E1.18336
G1 X120.3 Y76.84 E0.02508
G1 X120.702 Y76.958 E0.02508
G1 X121.074 Y77.151 E0.02509
G1 X121.439 Y77.444 E0.02802
G1 X121.556 Y77.561 E0.00991
G1 X121.822 Y77.885 E0.0251
G1 X122.023 Y78.252 E0.02505
G1 X122.15 Y78.652 E0.02513
G1 X122.2 Y79.117 E0.028
G1 X122.2 Y118.8 E2.37575
G1 X139.883 Y118.8 E1.05865
G1 X140.3 Y118.84 E0.02508
G1 X140.702 Y118.958 E0.02508
G1 X141.074 Y119.151 E0.02509
G1 X141.439 Y119.444 E0.02802
G1 X141.556 Y119.561 E0.00991
G1 X141.822 Y119.885 E0.0251
G1 X142.023 Y120.252 E0.02505
G1 X142.15 Y120.652 E0.02513
G1 X142.2 Y121.117 E0.028
G1 X142.2 Y140.883 E1.18336
G1 X142.16 Y141.3 E0.02508
G1 X142.042 Y141.702 E0.02508
G1 X141.849 Y142.074 E0.02509
G1 X141.556 Y142.439 E0.02802
G1 X141.439 Y142.556 E0.00991
G1 X141.115 Y142.822 E0.0251
G1 X140.748 Y143.023 E0.02505
G1 X140.348 Y143.15 E0.02513
G1 X139.883 Y143.2 E0.028
G1 X80.117 Y143.2 E3.57809
G1 X79.7 Y143.16 E0.02508
G1 X79.298 Y143.042 E0.02508
G1 X78.926 Y142.849 E0.02509
G1 X78.561 Y142.556 E0.02802
G1 X78.444 Y142.439 E0.00991
G1 X78.178 Y142.115 E0.0251
G1 X77.977 Y141.748 E0.02505
G1 X77.85 Y141.348 E0.02513
G1 X77.8 Y140.883 E0.028
G1 X77.8 Y121.117 E1.18336
G1 X77.84 Y120.7 E0.02508
G1 X77.958 Y120.298 E0.02508
G1 X78.151 Y119.926 E0.02509
G1 X78.444 Y119.561 E0.02802
G1 X78.561 Y119.444 E0.00991
G1 X78.885 Y119.178 E0.0251
G1 X79.252 Y118.977 E0.02505
G1 X79.652 Y118.85 E0.02513
G1 X80.117 Y118.8 E0.028
G1 X97.8 Y118.8 E1.05865
G1 X97.8 Y79.117 E2.37575
G1 X97.84 Y78.7 E0.02508
G1 X97.958 Y78.298 E0.02508
G1 X98.151 Y77.926 E0.02509
G0 F3600 X98.548 Y78.053
G1 F1800 X98.727 Y77.844 E0.01647
G1 X98.844 Y77.727 E0.00991
G1 X99.139 Y77.489 E0.02269
G1 X99.477 Y77.318 E0.02268
G1 X99.843 Y77.221 E0.02267
G1 X100.117 Y77.2 E0.01645
G1 X119.883 Y77.2 E1.18336
G1 X120.26 Y77.24 E0.0227
G1 X120.62 Y77.358 E0.02268
G1 X120.947 Y77.548 E0.02264
G1 X121.156 Y77.727 E0.01647
G1 X121.273 Y77.844 E0.00991
G1 X121.511 Y78.139 E0.02269
G1 X121.682 Y78.477 E0.02268
G1 X121.779 Y78.843 E0.02267
G1 X121.8 Y79.117 E0.01645
G1 X121.8 Y119.2 E2.3997
G1 X139.883 Y119.2 E1.0826
G1 X140.26 Y119.24 E0.0227
G1 X140.62 Y119.358 E0.02268
G1 X140.947 Y119.548 E0.02264
G1 X141.156 Y119.727 E0.01647
G1 X141.273 Y119.844 E0.00991
G1 X141.511 Y120.139 E0.02269
G1 X141.682 Y120.477 E0.02268
G1 X141.779 Y120.843 E0.02267
G1 X141.8 Y121.117 E0.01645
G1 X141.8 Y140.883 E1.18336
G1 X141.76 Y141.26 E0.0227
G1 X141.642 Y141.62 E0.02268
G1 X141.452 Y141.947 E0.02264
G1 X141.273 Y142.156 E0.01647
G1 X141.156 Y142.273 E0.00991
G1 X140.861 Y142.511 E0.02269
G1 X140.523 Y142.682 E0.02268
G1 X140.157 Y142.779 E0.02267
G1 X139.883 Y142.8 E0.01645
G1 X80.117 Y142.8 E3.57809
G1 X79.74 Y142.76 E0.0227
G1 X79.38 Y142.642 E0.02268
G1 X79.053 Y142.452 E0.02264
G1 X78.844 Y142.273 E0.01647
G1 X78.727 Y142.156 E0.00991
G1 X78.489 Y141.861 E0.02269
G1 X78.318 Y141.523 E0.02268
G1 X78.221 Y141.157 E0.02267
G1 X78.2 Y140.883 E0.01645
G1 X78.2 Y121.117 E1.18336
G1 X78.24 Y120.74 E0.0227
G1 X78.358 Y120.38 E0.02268
G1 X78.548 Y120.053 E0.02264
G1 X78.727 Y119.844 E0.01647
G1 X78.844 Y119.727 E0.00991
G1 X79.139 Y119.489 E0.02269
G1 X79.477 Y119.318 E0.02268
G1 X79.843 Y119.221 E0.02267
G1 X80.117 Y119.2 E0.01645
G1 X98.2 Y119.2 E1.0826
G1 X98.2 Y79.117 E2.3997
G1 X98.24 Y78.74 E0.0227
G1 X98.358 Y78.38 E0.02268
G1 X98.548 Y78.053 E0.02264
G0 F3600 X98.757 Y78.473
G1 F1800 X99.01 Y78.127 E0.02566
G1 X99.127 Y78.01 E0.00991
G1 X99.39 Y77.804 E0.02
G1 X99.694 Y77.665 E0.02001
G1 X100.117 Y77.6 E0.02562
G1 X119.883 Y77.6 E1.18336
G1 X120.215 Y77.64 E0.02002
G1 X120.527 Y77.757 E0.01995
G1 X120.873 Y78.01 E0.02566
G1 X120.99 Y78.127 E0.00991
G1 X121.196 Y78.39 E0.02
G1 X121.335 Y78.694 E0.02001
G1 X121.4 Y79.117 E0.02562
G1 X121.4 Y119.6 E2.42365
G1 X139.883 Y119.6 E1.10654
G1 X140.215 Y119.64 E0.02002
G1 X140.527 Y119.757 E0.01995
G1 X140.873 Y120.01 E0.02566
G1 X140.99 Y120.127 E0.00991
G1 X141.196 Y120.39 E0.02
G1 X141.335 Y120.694 E0.02001
G1 X141.4 Y121.117 E0.02562
G1 X141.4 Y140.883 E1.18336
G1 X141.36 Y141.215 E0.02002
G1 X141.243 Y141.527 E0.01995
G1 X140.99 Y141.873 E0.02566
G1 X140.873 Y141.99 E0.00991
G1 X140.61 Y142.196 E0.02
G1 X140.306 Y142.335 E0.02001
G1 X139.883 Y142.4 E0.02562
G1 X80.117 Y142.4 E3.57809
G1 X79.785 Y142.36 E0.02002
G1 X79.473 Y142.243 E0.01995
G1 X79.127 Y141.99 E0.02566
G1 X79.01 Y141.873 E0.00991
G1 X78.804 Y141.61 E0.02
G1 X78.665 Y141.306 E0.02001
G1 X78.6 Y140.883 E0.02562
G1 X78.6 Y121.117 E1.18336
G1 X78.64 Y120.785 E0.02002
G1 X78.757 Y120.473 E0.01995
G1 X79.01 Y120.127 E0.02566
G1 X79.127 Y120.01 E0.00991
G1 X79.39 Y119.804 E0.02
G1 X79.694 Y119.665 E0.02001
G1 X80.117 Y119.6 E0.02562
G1 X98.6 Y119.6 E1.10654
G1 X98.6 Y79.117 E2.42365
G1 X98.64 Y78.785 E0.02002
G1 X98.757 Y78.473 E0.01995
G0 F3600 X99.156 Y78.581
G1 F1800 X99.293 Y78.41 E0.01312
G1 X99.41 Y78.293 E0.00991
G1 X99.636 Y78.124 E0.01689
G1 X99.9 Y78.024 E0.0169
G1 X100.117 Y78 E0.01307
G1 X119.883 Y78 E1.18336
G1 X120.162 Y78.04 E0.01687
G1 X120.419 Y78.156 E0.01688
G1 X120.59 Y78.293 E0.01312
G1 X120.707 Y78.41 E0.00991
G1 X120.876 Y78.636 E0.01689
G1 X120.976 Y78.9 E0.0169
G1 X121 Y79.117 E0.01307
G1 X121 Y120 E2.44759
G1 X139.883 Y120 E1.13049
G1 X140.162 Y120.04 E0.01687
G1 X140.419 Y120.156 E0.01688
G1 X140.59 Y120.293 E0.01312
G1 X140.707 Y120.41 E0.00991
G1 X140.876 Y120.636 E0.01689
G1 X140.976 Y120.9 E0.0169
G1 X141 Y121.117 E0.01307
G1 X141 Y140.883 E1.18336
G1 X140.96 Y141.162 E0.01687
G1 X140.844 Y141.419 E0.01688
G1 X140.707 Y141.59 E0.01312
G1 X140.59 Y141.707 E0.00991
G1 X140.364 Y141.876 E0.01689
G1 X140.1 Y141.976 E0.0169
G1 X139.883 Y142 E0.01307
G1 X80.117 Y142 E3.57809
G1 X79.838 Y141.96 E0.01687
G1 X79.581 Y141.844 E0.01688
G1 X79.41 Y141.707 E0.01312
G1 X79.293 Y141.59 E0.00991
G1 X79.124 Y141.364 E0.01689
G1 X79.024 Y141.1 E0.0169
G1 X79 Y140.883 E0.01307
G1 X79 Y121.117 E1.18336
G1 X79.04 Y120.838 E0.01687
G1 X79.156 Y120.581 E0.01688
G1 X79.293 Y120.41 E0.01312
G1 X79.41 Y120.293 E0.00991
G1 X79.636 Y120.124 E0.01689
G1 X79.9 Y120.024 E0.0169
G1 X80.117 Y120 E0.01307
G1 X99 Y120 E1.13049
G1 X99 Y79.117 E2.44759
G1 X99.04 Y78.838 E0.01687
G1 X99.156 Y78.581 E0.01688
G0 F3600 X99.44 Y78.902
G1 F1800 X99.576 Y78.693 E0.01493
G1 X99.693 Y78.576 E0.00991
G1 X99.872 Y78.452 E0.01304
G1 X100.117 Y78.4 E0.01499
G1 X119.883 Y78.4 E1.18336
G1 X120.098 Y78.44 E0.01309
G1 X120.307 Y78.576 E0.01493
G1 X120.424 Y78.693 E0.00991
G1 X120.548 Y78.872 E0.01304
G1 X120.6 Y79.117 E0.01499
G1 X120.6 Y120.4 E2.47154
G1 X139.883 Y120.4 E1.15444
G1 X140.098 Y120.44 E0.01309
G1 X140.307 Y120.576 E0.01493
G1 X140.424 Y120.693 E0.00991
G1 X140.548 Y120.872 E0.01304
G1 X140.6 Y121.117 E0.01499
G1 X140.6 Y140.883 E1.18336
G1 X140.56 Y141.098 E0.01309
G1 X140.424 Y141.307 E0.01493
G1 X140.307 Y141.424 E0.00991
G1 X140.128 Y141.548 E0.01304
G1 X139.883 Y141.6 E0.01499
G1 X80.117 Y141.6 E3.57809
G1 X79.902 Y141.56 E0.01309
G1 X79.693 Y141.424 E0.01493
G1 X79.576 Y141.307 E0.00991
G1 X79.452 Y141.128 E0.01304
G1 X79.4 Y140.883 E0.01499
G1 X79.4 Y121.117 E1.18336
G1 X79.44 Y120.902 E0.01309
G1 X79.576 Y120.693 E0.01493
G1 X79.693 Y120.576 E0.00991
G1 X79.872 Y120.452 E0.01304
G1 X80.117 Y120.4 E0.01499
G1 X99.4 Y120.4 E1.15444
G1 X99.4 Y79.117 E2.47154
G1 X99.44 Y78.902 E0.01309
G0 F3600 X99.859 Y78.976
G1 F1800 X99.976 Y78.859 E0.00991
G1 X100.117 Y78.8 E0.00915
G1 X119.883 Y78.8 E1.18336
G1 X120.024 Y78.859 E0.00915
G1 X120.141 Y78.976 E0.00991
G1 X120.2 Y79.117 E0.00915
G1 X120.2 Y120.8 E2.49549
G1 X139.883 Y120.8 E1.17839
G1 X140.024 Y120.859 E0.00915
G1 X140.141 Y120.976 E0.00991
G1 X140.2 Y121.117 E0.00915
G1 X140.2 Y140.883 E1.18336
G1 X140.141 Y141.024 E0.00915
G1 X140.024 Y141.141 E0.00991
G1 X139.883 Y141.2 E0.00915
G1 X80.117 Y141.2 E3.57809
G1 X79.976 Y141.141 E0.00915
G1 X79.859 Y141.024 E0.00991
G1 X79.8 Y140.883 E0.00915
G1 X79.8 Y121.117 E1.18336
G1 X79.859 Y120.976 E0.00915
G1 X79.976 Y120.859 E0.00991
G1 X80.117 Y120.8 E0.00915
G1 X99.8 Y120.8 E1.17839
G1 X99.8 Y79.117 E2.49549
G1 X99.859 Y78.976 E0.00915
G1 F3600 E-2
G0 F3600 X100.614 Y79.614
G0 X103.323 Y84.138
;TYPE:WALL-INNER
G1 F3600 E2
G1 F1800 X102.974 Y84.528 E0.03133
G1 X102.712 Y84.98 E0.03128
G1 X102.55 Y85.478 E0.03135
G1 X102.495 Y86 E0.03142
G1 X102.55 Y86.522 E0.03142
G1 X102.712 Y87.02 E0.03135
G1 X102.974 Y87.472 E0.03128
G1 X103.323 Y87.862 E0.03133
G1 X103.748 Y88.169 E0.03139
G1 X104.225 Y88.382 E0.03127
G1 X104.738 Y88.492 E0.03141
G1 X105.262 Y88.492 E0.03137
G1 X105.775 Y88.382 E0.03141
G1 X106.252 Y88.169 E0.03127
G1 X106.677 Y87.862 E0.03139
G1 X107.026 Y87.472 E0.03133
G1 X107.288 Y87.02 E0.03128
G1 X107.45 Y86.522 E0.03135
G1 X107.505 Y86 E0.03142
G1 X107.45 Y85.478 E0.03142
G1 X107.288 Y84.98 E0.03135
G1 X107.026 Y84.528 E0.03128
G1 X106.677 Y84.138 E0.03133
G1 X106.252 Y83.831 E0.03139
G1 X105.775 Y83.618 E0.03127
G1 X105.262 Y83.508 E0.03141
G1 X104.738 Y83.508 E0.03137
G1 X104.225 Y83.618 E0.03141
G1 X103.748 Y83.831 E0.03127
G1 X103.323 Y84.138 E0.03139
G0 F3600 X104.776 Y83.869
G0 X112.971 Y84.528
G1 F1800 X112.71 Y84.982 E0.03135
G1 X112.55 Y85.479 E0.03126
G1 X112.495 Y86 E0.03136
G1 X112.55 Y86.521 E0.03136
G1 X112.71 Y87.018 E0.03126
G1 X112.971 Y87.472 E0.03135
G1 X113.324 Y87.863 E0.03154
G1 X113.747 Y88.169 E0.03126
G1 X114.225 Y88.382 E0.03133
G1 X114.738 Y88.492 E0.03141
G1 X115.262 Y88.492 E0.03137
G1 X115.775 Y88.382 E0.03141
G1 X116.253 Y88.169 E0.03133
G1 X116.676 Y87.863 E0.03126
G1 X117.029 Y87.472 E0.03154
G1 X117.29 Y87.018 E0.03135
G1 X117.45 Y86.521 E0.03126
G1 X117.505 Y86 E0.03136
G1 X117.45 Y85.479 E0.03136
G1 X117.29 Y84.982 E0.03126
G1 X117.029 Y84.528 E0.03135
G1 X116.676 Y84.137 E0.03154
G1 X116.253 Y83.831 E0.03126
G1 X115.775 Y83.618 E0.03133
G1 X115.262 Y83.508 E0.03141
G1 X114.738 Y83.508 E0.03137
G1 X114.225 Y83.618 E0.03141
G1 X113.747 Y83.831 E0.03133
G1 X113.324 Y84.137 E0.03126
G1 X112.971 Y84.528 E0.03154
G0 F3600 X112.857 Y86
G0 X119 Y122
G1 F1800 X139 Y122 E1.19736
G1 X139 Y140 E1.07763
G1 X81 Y140 E3.47236
G1 X81 Y122 E1.07763
G1 X101 Y122 E1.19736
G1 X101 Y80 E2.51447
G1 X119 Y80 E1.07763
G1 X119 Y122 E2.51447
G0 F3600 X128.123 Y127.747
G1 F1800 X127.487 Y128.209 E0.04706
G1 X126.962 Y128.794 E0.04706
G1 X126.57 Y129.471 E0.04683
G1 X126.327 Y130.218 E0.04703
G1 X126.245 Y131 E0.04707
G1 X126.327 Y131.782 E0.04707
G1 X126.57 Y132.529 E0.04703
G1 X126.962 Y133.206 E0.04683
G1 X127.487 Y133.791 E0.04706
G1 X128.123 Y134.253 E0.04706
G1 X128.84 Y134.57 E0.04693
G1 X129.608 Y134.735 E0.04703
G1 X130.392 Y134.735 E0.04694
G1 X131.16 Y134.57 E0.04703
G1 X131.877 Y134.253 E0.04693
G1 X132.513 Y133.791 E0.04706
G1 X133.038 Y133.206 E0.04706
G1 X133.43 Y132.529 E0.04683
G1 X133.673 Y131.782 E0.04703
G1 X133.755 Y131 E0.04707
G1 X133.673 Y130.218 E0.04707
G1 X133.43 Y129.471 E0.04703
G1 X133.038 Y128.794 E0.04683
G1 X132.513 Y128.209 E0.04706
G1 X131.877 Y127.747 E0.04706
G1 X131.16 Y127.43 E0.04693
G1 X130.392 Y127.265 E0.04703
G1 X129.608 Y127.265 E0.04694
G1 X128.84 Y127.43 E0.04703
G1 X128.123 Y127.747 E0.04693
G0 F3600 X109.645 Y127.626
G0 X108.123 Y127.747
G1 F1800 X107.487 Y128.209 E0.04706
G1 X106.962 Y128.794 E0.04706
G1 X106.57 Y129.471 E0.04683
G1 X106.327 Y130.218 E0.04703
G1 X106.245 Y131 E0.04707
G1 X106.327 Y131.782 E0.04707
G1 X106.57 Y132.529 E0.04703
G1 X106.962 Y133.206 E0.04683
G1 X107.487 Y133.791 E0.04706
G1 X108.123 Y134.253 E0.04706
G1 X108.84 Y134.57 E0.04693
G1 X109.607 Y134.735 E0.04697
G1 X110.393 Y134.735 E0.04706
G1 X111.16 Y134.57 E0.04697
G1 X111.877 Y134.253 E0.04693
G1 X112.513 Y133.791 E0.04706
G1 X113.038 Y133.206 E0.04706
G1 X113.43 Y132.529 E0.04683
G1 X113.673 Y131.782 E0.04703
G1 X113.755 Y131 E0.04707
G1 X113.673 Y130.218 E0.04707
G1 X113.43 Y129.471 E0.04703
G1 X113.038 Y128.794 E0.04683
G1 X112.513 Y128.209 E0.04706
G1 X111.877 Y127.747 E0.04706
G1 X111.16 Y127.43 E0.04693
G1 X110.393 Y127.265 E0.04697
G1 X109.607 Y127.265 E0.04706
G1 X108.84 Y127.43 E0.04697
G1 X108.123 Y127.747 E0.04693
G0 F3600 X89.646 Y127.626
G0 X88.123 Y127.747
G1 F1800 X87.487 Y128.209 E0.04706
G1 X86.962 Y128.794 E0.04706
G1 X86.57 Y129.471 E0.04683
G1 X86.327 Y130.218 E0.04703
G1 X86.245 Y131 E0.04707
G1 X86.327 Y131.782 E0.04707
G1 X86.57 Y132.529 E0.04703
G1 X86.962 Y133.206 E0.04683
G1 X87.487 Y133.791 E0.04706
G1 X88.123 Y134.253 E0.04706
G1 X88.84 Y134.57 E0.04693
G1 X89.608 Y134.735 E0.04703
G1 X90.393 Y134.735 E0.047
G1 X91.16 Y134.57 E0.04697
G1 X91.877 Y134.253 E0.04693
G1 X92.513 Y133.791 E0.04706
G1 X93.038 Y133.206 E0.04706
G1 X93.43 Y132.529 E0.04683
G1 X93.673 Y131.782 E0.04703
G1 X93.755 Y131 E0.04707
G1 X93.673 Y130.218 E0.04707
G1 X93.43 Y129.471 E0.04703
G1 X93.038 Y128.794 E0.04683
G1 X92.513 Y128.209 E0.04706
G1 X91.877 Y127.747 E0.04706
G1 X91.16 Y127.43 E0.04693
G1 X90.393 Y127.265 E0.04697
G1 X89.608 Y127.265 E0.047
G1 X88.84 Y127.43 E0.04703
G1 X88.123 Y127.747 E0.04693
G0 F3600 X86.901 Y129.619
G0 X86.681 Y130.294
G0 X86.607 Y131
G0 X86.681 Y131.706
G0 X86.901 Y132.381
G0 X87.255 Y132.993
G0 X87.73 Y133.521
G0 X88.305 Y133.938
G0 X88.952 Y134.226
G0 X89.148 Y134.267
G0 X90.361 Y134.434
G0 X90.351 Y134.335
G1 F1800 X91.036 Y134.188 E0.04194
G1 X91.676 Y133.904 E0.04192
G1 X92.244 Y133.492 E0.04201
G1 X92.713 Y132.97 E0.04201
G1 X93.063 Y132.365 E0.04184
G1 X93.28 Y131.698 E0.04199
G1 X93.353 Y131 E0.04202
G1 X93.28 Y130.302 E0.04202
G1 X93.063 Y129.635 E0.04199
G1 X92.713 Y129.03 E0.04184
G1 X92.244 Y128.508 E0.04201
G1 X91.676 Y128.096 E0.04201
G1 X91.036 Y127.812 E0.04192
G1 X90.351 Y127.665 E0.04194
G1 X89.65 Y127.665 E0.04197
G1 X88.964 Y127.812 E0.042
G1 X88.324 Y128.096 E0.04192
G1 X87.756 Y128.508 E0.04201
G1 X87.287 Y129.03 E0.04201
G1 X86.937 Y129.635 E0.04184
G1 X86.72 Y130.302 E0.04199
G1 X86.647 Y131 E0.04202
G1 X86.72 Y131.698 E0.04202
G1 X86.937 Y132.365 E0.04199
G1 X87.287 Y132.97 E0.04184
G1 X87.756 Y133.492 E0.04201
G1 X88.324 Y133.904 E0.04201
G1 X88.964 Y134.188 E0.04192
G1 X89.65 Y134.335 E0.042
G1 X90.351 Y134.335 E0.04197
G0 F3600 X90.361 Y134.434
G0 X109.639 Y127.566
G0 X109.649 Y127.665
G1 F1800 X108.964 Y127.812 E0.04194
G1 X108.324 Y128.096 E0.04192
G1 X107.756 Y128.508 E0.04201
G1 X107.287 Y129.03 E0.04201
G1 X106.937 Y129.635 E0.04184
G1 X106.72 Y130.302 E0.04199
G1 X106.647 Y131 E0.04202
G1 X106.72 Y131.698 E0.04202
G1 X106.937 Y132.365 E0.04199
G1 X107.287 Y132.97 E0.04184
G1 X107.756 Y133.492 E0.04201
G1 X108.324 Y133.904 E0.04201
G1 X108.964 Y134.188 E0.04192
G1 X109.649 Y134.335 E0.04194
G1 X110.351 Y134.335 E0.04203
G1 X111.036 Y134.188 E0.04194
G1 X111.676 Y133.904 E0.04192
G1 X112.244 Y133.492 E0.04201
G1 X112.713 Y132.97 E0.04201
G1 X113.063 Y132.365 E0.04184
G1 X113.28 Y131.698 E0.04199
G1 X113.353 Y131 E0.04202
G1 X113.28 Y130.302 E0.04202
G1 X113.063 Y129.635 E0.04199
G1 X112.713 Y129.03 E0.04184
G1 X112.244 Y128.508 E0.04201
G1 X111.676 Y128.096 E0.04201
G1 X111.036 Y127.812 E0.04192
G1 X110.351 Y127.665 E0.04194
G1 X109.649 Y127.665 E0.04203
G0 F3600 X109.639 Y127.566
G0 X119.33 Y121.67
G0 X119.4 Y121.6
G1 F1800 X139.4 Y121.6 E1.19736
G1 X139.4 Y140.4 E1.12552
G1 X80.6 Y140.4 E3.52025
G1 X80.6 Y121.6 E1.12552
G1 X100.6 Y121.6 E1.19736
G1 X100.6 Y79.6 E2.51447
G1 X119.4 Y79.6 E1.12552
G1 X119.4 Y121.6 E2.51447
G0 F3600 X119.33 Y121.67
G0 X127.69 Y128.434
G0 X127.756 Y128.508
G1 F1800 X127.287 Y129.03 E0.04201
G1 X126.937 Y129.635 E0.04184
G1 X126.72 Y130.302 E0.04199
G1 X126.647 Y131 E0.04202
G1 X126.72 Y131.698 E0.04202
G1 X126.937 Y132.365 E0.04199
G1 X127.287 Y132.97 E0.04184
