;FLAVOR:RepRap
;TIME:903
;Filament used: 0.986863m
;Layer height: 0.2
;Generated with Cura_SteamEngine 3.4.1
T0
M190 S70
M104 S245
M109 S245
M82 ;absolute extrusion mode
G28 ;Home
G1 Z15.0 F6000 ;Move the platform down 15mm
;Prime the extruder
G92 E0
G1 F200 E3
G92 E0
M83 ;relative extrusion mode
G1 F3600 E-2
;LAYER_COUNT:28
;LAYER:0
M107
G0 F3600 X89.778 Y98.254 Z0.25
;TYPE:SKIRT
G1 F3600 E2
G1 F1800 X90.182 Y97.901 E0.01784
G1 X90.634 Y97.613 E0.01783
G1 X90.879 Y97.493 E0.00907
G1 X91.611 Y97.168 E0.02664
G1 X92.116 Y96.987 E0.01784
G1 X92.642 Y96.884 E0.01783
G1 X93.02 Y96.858 E0.0126
G1 X95.987 Y96.815 E0.09869
G1 X96.086 Y96.815 E0.00329
G1 X103.174 Y96.907 E0.23577
G1 X110.329 Y96.811 E0.238
G1 X110.378 Y96.811 E0.00163
G1 X123.04 Y96.815 E0.42114
G1 X123.086 Y96.815 E0.00153
G1 X130.174 Y96.907 E0.23577
G1 X137.329 Y96.811 E0.238
G1 X137.466 Y96.812 E0.00456
G1 X140.094 Y96.877 E0.08743
G1 X140.628 Y96.93 E0.01785
G1 X141.344 Y97.134 E0.02476
G1 X141.808 Y97.32 E0.01663
G1 X142.29 Y97.557 E0.01786
G1 X142.71 Y97.845 E0.01694
G1 X143.214 Y98.246 E0.02142
G1 X143.608 Y98.61 E0.01784
G1 X143.985 Y99.091 E0.02033
G1 X144.328 Y99.615 E0.02083
G1 X144.588 Y100.085 E0.01786
G1 X144.791 Y100.646 E0.01984
G1 X144.953 Y101.244 E0.02061
G1 X145.054 Y101.77 E0.01781
G1 X145.078 Y102.187 E0.01389
G1 X145.07 Y117.879 E0.52192
G1 X145.03 Y118.414 E0.01784
G1 X144.914 Y118.925 E0.01743
G1 X144.735 Y119.513 E0.02044
G1 X144.541 Y120.013 E0.01784
G1 X144.28 Y120.471 E0.01753
G1 X143.968 Y120.936 E0.01862
G1 X143.637 Y121.358 E0.01784
G1 X143.196 Y121.767 E0.02
G1 X142.647 Y122.196 E0.02317
G1 X142.201 Y122.493 E0.01782
G1 X141.68 Y122.735 E0.01911
G1 X141.183 Y122.919 E0.01763
G1 X140.667 Y123.067 E0.01785
G1 X139.984 Y123.143 E0.02286
G1 X137.008 Y123.185 E0.09899
G1 X136.911 Y123.185 E0.00323
G1 X129.734 Y123.094 E0.23873
G1 X120.854 Y123.192 E0.29537
G1 X120.769 Y123.192 E0.00283
G1 X115.007 Y123.12 E0.19166
G1 X107.85 Y123.192 E0.23805
G1 X107.707 Y123.19 E0.00476
G1 X105.54 Y123.125 E0.07211
G1 X95.646 Y123.189 E0.32908
G1 X95.534 Y123.188 E0.00373
G1 X92.906 Y123.123 E0.08743
G1 X92.372 Y123.07 E0.01785
G1 X91.853 Y122.938 E0.01781
G1 X91.467 Y122.784 E0.01382
G1 X90.814 Y122.478 E0.02399
G1 X90.347 Y122.215 E0.01783
G1 X89.766 Y121.733 E0.02511
G1 X89.275 Y121.23 E0.02338
G1 X88.93 Y120.819 E0.01785
G1 X88.65 Y120.362 E0.01783
G1 X88.505 Y120.043 E0.01165
G1 X88.191 Y119.252 E0.02831
G1 X88.031 Y118.74 E0.01784
G1 X87.948 Y118.211 E0.01781
G1 X87.937 Y117.928 E0.00942
G1 X87.919 Y102.291 E0.52009
G1 X87.983 Y101.609 E0.02278
G1 X88.089 Y101.056 E0.01873
G1 X88.229 Y100.539 E0.01781
G1 X88.429 Y100.076 E0.01677
G1 X88.677 Y99.598 E0.01791
G1 X88.959 Y99.142 E0.01783
G1 X89.311 Y98.727 E0.0181
G1 X89.778 Y98.254 E0.02211
G0 F3600 X90.063 Y98.535
G1 F1800 X90.445 Y98.204 E0.01681
G1 X91.041 Y97.858 E0.02292
G1 X91.773 Y97.533 E0.02664
G1 X92.25 Y97.365 E0.01682
G1 X92.748 Y97.274 E0.01684
G1 X93.026 Y97.258 E0.00926
G1 X95.993 Y97.215 E0.09869
G1 X96.081 Y97.215 E0.00293
G1 X103.174 Y97.307 E0.23593
G1 X110.334 Y97.211 E0.23816
G1 X110.378 Y97.211 E0.00146
G1 X123.04 Y97.215 E0.42114
G1 X123.081 Y97.215 E0.00136
G1 X130.174 Y97.307 E0.23593
G1 X137.334 Y97.211 E0.23816
G1 X137.456 Y97.212 E0.00406
G1 X140.084 Y97.277 E0.08743
G1 X140.587 Y97.329 E0.01682
G1 X141.196 Y97.506 E0.02109
G1 X141.66 Y97.692 E0.01663
G1 X142.113 Y97.916 E0.01681
G1 X142.461 Y98.158 E0.0141
G1 X142.965 Y98.559 E0.02142
G1 X143.335 Y98.904 E0.01683
G1 X143.65 Y99.31 E0.01709
G1 X143.993 Y99.834 E0.02083
G1 X144.236 Y100.278 E0.01683
G1 X144.405 Y100.75 E0.01667
G1 X144.567 Y101.348 E0.02061
G1 X144.66 Y101.845 E0.01682
G1 X144.678 Y102.187 E0.01139
G1 X144.67 Y117.879 E0.52192
G1 X144.63 Y118.383 E0.01682
G1 X144.531 Y118.809 E0.01455
G1 X144.352 Y119.397 E0.02044
G1 X144.167 Y119.867 E0.0168
G1 X143.948 Y120.248 E0.01462
G1 X143.636 Y120.713 E0.01862
G1 X143.322 Y121.109 E0.01681
G1 X142.949 Y121.451 E0.01683
G1 X142.4 Y121.88 E0.02317
G1 X141.979 Y122.159 E0.0168
G1 X141.541 Y122.36 E0.01603
G1 X141.044 Y122.544 E0.01763
G1 X140.558 Y122.681 E0.01679
G1 X139.978 Y122.743 E0.0194
G1 X137.002 Y122.785 E0.09899
G1 X136.916 Y122.785 E0.00286
G1 X129.734 Y122.693 E0.23889
G1 X120.849 Y122.792 E0.29553
G1 X120.774 Y122.792 E0.00249
G1 X115.008 Y122.72 E0.19179
G1 X107.846 Y122.792 E0.23822
G1 X107.719 Y122.791 E0.00422
G1 X105.522 Y122.725 E0.07311
G1 X95.644 Y122.789 E0.32855
G1 X95.544 Y122.788 E0.00333
G1 X92.916 Y122.723 E0.08743
G1 X92.413 Y122.671 E0.01682
G1 X91.925 Y122.54 E0.01681
G1 X91.637 Y122.422 E0.01035
G1 X90.984 Y122.116 E0.02399
G1 X90.545 Y121.866 E0.0168
G1 X90.052 Y121.453 E0.02139
G1 X89.561 Y120.95 E0.02338
G1 X89.238 Y120.562 E0.01679
G1 X88.979 Y120.127 E0.01684
G1 X88.877 Y119.896 E0.0084
G1 X88.563 Y119.105 E0.02831
G1 X88.414 Y118.622 E0.01681
G1 X88.337 Y117.928 E0.02322
G1 X88.319 Y102.291 E0.52009
G1 X88.376 Y101.685 E0.02024
G1 X88.482 Y101.132 E0.01873
G1 X88.616 Y100.644 E0.01683
G1 X88.785 Y100.26 E0.01395
G1 X89.033 Y99.782 E0.01791
G1 X89.3 Y99.353 E0.01681
G1 X89.596 Y99.008 E0.01512
G1 X90.063 Y98.535 E0.02211
G1 F3600 E-2
G0 F3600 X90.959 Y101.596
G0 X92.128 Y102.253
G0 X98.114 Y115.317
;TYPE:WALL-INNER
G1 F3600 E2
G1 F1800 X97.91 Y115.09 E0.01015
G1 X97.683 Y114.886 E0.01015
G1 X97.437 Y114.714 E0.00998
G1 X97.175 Y114.567 E0.00999
G1 X96.889 Y114.448 E0.0103
G1 X96.599 Y114.366 E0.01002
G1 X96.303 Y114.316 E0.00998
G1 X96 Y114.298 E0.0101
G1 X95.697 Y114.316 E0.0101
G1 X95.401 Y114.366 E0.00998
G1 X95.111 Y114.448 E0.01002
G1 X94.825 Y114.567 E0.0103
G1 X94.563 Y114.714 E0.00999
G1 X94.317 Y114.886 E0.00998
G1 X94.09 Y115.09 E0.01015
G1 X93.886 Y115.317 E0.01015
G1 X93.714 Y115.563 E0.00998
G1 X93.567 Y115.825 E0.00999
G1 X93.448 Y116.111 E0.0103
G1 X93.366 Y116.401 E0.01002
G1 X93.316 Y116.696 E0.00995
G1 X93.3 Y116.97 E0.00913
G1 X93.3 Y118.397 E0.04746
G1 X93.3 Y118.403 E0.0002
G1 X93.3 Y118.465 E0.00206
G1 X93.3 Y118.51 E0.0015
G1 X93.3 Y118.551 E0.00136
G1 X93.3 Y118.578 E0.0009
G1 X93.196 Y118.551 E0.00186
G1 X93.091 Y118.51 E0.00239
G1 X93.001 Y118.465 E0.00253
G1 X92.906 Y118.403 E0.00342
G1 X92.902 Y118.4 E0.00017
G1 X92.837 Y118.347 E0.00279
G1 X92.753 Y118.263 E0.00395
G1 X92.697 Y118.194 E0.00296
G1 X92.635 Y118.099 E0.00377
G1 X92.59 Y118.009 E0.00335
G1 X92.549 Y117.904 E0.00375
G1 X92.524 Y117.812 E0.00317
G1 X92.506 Y117.695 E0.00394
G1 X92.5 Y117.589 E0.00353
G1 X92.5 Y102.588 E0.49894
G1 X92.508 Y102.286 E0.01005
G1 X92.549 Y102.096 E0.00646
G1 X92.585 Y102.001 E0.00338
G1 X92.634 Y101.903 E0.00364
G1 X92.69 Y101.817 E0.00341
G1 X92.758 Y101.733 E0.00359
G1 X92.846 Y101.645 E0.00414
G1 X92.903 Y101.599 E0.00244
G1 X92.913 Y101.591 E0.00043
G1 X93.001 Y101.534 E0.00349
G1 X93.098 Y101.486 E0.0036
G1 X93.197 Y101.449 E0.00352
G1 X93.3 Y101.423 E0.00353
G1 X93.3 Y101.449
G1 X93.3 Y101.486
G1 X93.3 Y101.534 E0.00001
G1 X93.3 Y101.591 E0.00049
G1 X93.3 Y101.604 E0.00043
G1 X93.3 Y103.03 E0.04743
G1 X93.316 Y103.304 E0.00913
G1 X93.366 Y103.599 E0.00995
G1 X93.448 Y103.889 E0.01002
G1 X93.567 Y104.175 E0.0103
G1 X93.714 Y104.437 E0.00999
G1 X93.886 Y104.683 E0.00998
G1 X94.09 Y104.91 E0.01015
G1 X94.317 Y105.114 E0.01015
G1 X94.563 Y105.286 E0.00998
G1 X94.825 Y105.433 E0.00999
G1 X95.111 Y105.552 E0.0103
G1 X95.401 Y105.634 E0.01002
G1 X95.697 Y105.684 E0.00998
G1 X96 Y105.702 E0.0101
G1 X96.303 Y105.684 E0.0101
G1 X96.599 Y105.634 E0.00998
G1 X96.889 Y105.552 E0.01002
G1 X97.175 Y105.433 E0.0103
G1 X97.437 Y105.286 E0.00999
G1 X97.683 Y105.114 E0.00998
G1 X97.91 Y104.91 E0.01015
G1 X98.114 Y104.683 E0.01015
G1 X98.286 Y104.437 E0.00998
G1 X98.433 Y104.175 E0.00999
G1 X98.552 Y103.889 E0.0103
G1 X98.634 Y103.599 E0.01002
G1 X98.684 Y103.304 E0.00995
G1 X98.7 Y103.03 E0.00913
G1 X98.7 Y101.602 E0.0475
G1 X98.7 Y101.601 E0.00003
G1 X98.7 Y101.534 E0.00223
G1 X98.7 Y101.49 E0.00146
G1 X98.7 Y101.449 E0.00136
G1 X98.7 Y101.422 E0.0009
G1 X98.804 Y101.449 E0.00186
G1 X98.909 Y101.49 E0.00239
G1 X98.995 Y101.534 E0.00238
G1 X99.099 Y101.601 E0.00374
G1 X99.161 Y101.651 E0.00265
G1 X99.296 Y101.797 E0.00661
G1 X99.37 Y101.911 E0.00452
G1 X99.41 Y101.991 E0.00297
G1 X99.451 Y102.096 E0.00375
G1 X99.476 Y102.188 E0.00317
G1 X99.494 Y102.305 E0.00394
G1 X99.5 Y102.411 E0.00353
G1 X99.5 Y117.589 E0.50482
G1 X99.494 Y117.695 E0.00353
G1 X99.476 Y117.812 E0.00394
G1 X99.451 Y117.904 E0.00317
G1 X99.41 Y118.009 E0.00375
G1 X99.365 Y118.099 E0.00335
G1 X99.303 Y118.194 E0.00377
G1 X99.247 Y118.263 E0.00296
G1 X99.163 Y118.347 E0.00395
G1 X99.098 Y118.4 E0.00279
G1 X99.094 Y118.403 E0.00017
G1 X98.999 Y118.465 E0.00377
G1 X98.909 Y118.51 E0.00335
G1 X98.804 Y118.551 E0.00375
G1 X98.7 Y118.578 E0.00357
G1 X98.7 Y118.551
G1 X98.7 Y118.51
G1 X98.7 Y118.465
G1 X98.7 Y118.403 E0.00063
G1 X98.7 Y118.397 E0.0002
G1 X98.7 Y116.97 E0.04746
G1 X98.684 Y116.696 E0.00913
G1 X98.634 Y116.401 E0.00995
G1 X98.552 Y116.111 E0.01002
G1 X98.433 Y115.825 E0.0103
G1 X98.286 Y115.563 E0.00999
G1 X98.114 Y115.317 E0.00998
G0 F3600 X93.838 Y104.043
G0 X93.927 Y104
G1 F1800 X94.053 Y104.224 E0.00855
G1 X94.2 Y104.434 E0.00853
G1 X94.373 Y104.627 E0.00862
G1 X94.566 Y104.8 E0.00862
G1 X94.776 Y104.947 E0.00853
G1 X95 Y105.073 E0.00855
G1 X95.242 Y105.173 E0.00871
G1 X95.489 Y105.243 E0.00854
G1 X95.742 Y105.286 E0.00854
G1 X96 Y105.301 E0.0086
G1 X96.258 Y105.286 E0.0086
G1 X96.511 Y105.243 E0.00854
G1 X96.758 Y105.173 E0.00854
G1 X97 Y105.073 E0.00871
G1 X97.224 Y104.947 E0.00855
G1 X97.434 Y104.8 E0.00853
G1 X97.627 Y104.627 E0.00862
G1 X97.8 Y104.434 E0.00862
G1 X97.947 Y104.224 E0.00853
G1 X98.073 Y104 E0.00855
G1 X98.173 Y103.758 E0.00871
G1 X98.243 Y103.511 E0.00854
G1 X98.286 Y103.259 E0.0085
G1 X98.3 Y103.018 E0.00803
G1 X98.3 Y101.035 E0.06595
G1 X98.3 Y101 E0.00116
G1 X98.639 Y101.008 E0.01128
G1 X98.673 Y101.013 E0.00108
G1 X98.792 Y101.032 E0.00401
G1 X98.934 Y101.07 E0.00489
G1 X99.073 Y101.124 E0.00496
G1 X99.191 Y101.184 E0.0044
G1 X99.334 Y101.277 E0.00567
G1 X99.433 Y101.357 E0.00423
G1 X99.542 Y101.466 E0.00513
G1 X99.622 Y101.564 E0.00421
G1 X99.716 Y101.709 E0.00575
G1 X99.776 Y101.827 E0.0044
G1 X99.83 Y101.966 E0.00496
G1 X99.868 Y102.108 E0.00489
G1 X99.892 Y102.261 E0.00515
G1 X99.9 Y102.411 E0.005
G1 X99.9 Y117.589 E0.50482
G1 X99.892 Y117.739 E0.005
G1 X99.868 Y117.892 E0.00515
G1 X99.83 Y118.034 E0.00489
G1 X99.776 Y118.173 E0.00496
G1 X99.716 Y118.291 E0.0044
G1 X99.624 Y118.434 E0.00566
G1 X99.542 Y118.534 E0.0043
G1 X99.434 Y118.642 E0.00508
G1 X99.334 Y118.724 E0.0043
G1 X99.191 Y118.816 E0.00566
G1 X99.073 Y118.876 E0.0044
G1 X98.934 Y118.93 E0.00496
G1 X98.792 Y118.968 E0.00489
G1 X98.673 Y118.987 E0.00401
G1 X98.639 Y118.992 E0.00114
G1 X98.489 Y119 E0.005
G1 X98.3 Y119 E0.00629
G1 X98.3 Y118.965 E0.0011
G1 X98.3 Y116.982 E0.06595
G1 X98.286 Y116.741 E0.00803
G1 X98.243 Y116.489 E0.0085
G1 X98.173 Y116.242 E0.00854
G1 X98.073 Y116 E0.00871
G1 X97.947 Y115.776 E0.00855
G1 X97.8 Y115.566 E0.00853
G1 X97.627 Y115.373 E0.00862
G1 X97.434 Y115.2 E0.00862
G1 X97.224 Y115.053 E0.00853
G1 X97 Y114.927 E0.00855
G1 X96.758 Y114.827 E0.00871
G1 X96.511 Y114.757 E0.00854
G1 X96.258 Y114.714 E0.00854
G1 X96 Y114.699 E0.0086
G1 X95.742 Y114.714 E0.0086
G1 X95.489 Y114.757 E0.00854
G1 X95.242 Y114.827 E0.00854
G1 X95 Y114.927 E0.00871
G1 X94.776 Y115.053 E0.00855
G1 X94.566 Y115.2 E0.00853
G1 X94.373 Y115.373 E0.00862
G1 X94.2 Y115.566 E0.00862
G1 X94.053 Y115.776 E0.00853
G1 X93.927 Y116 E0.00855
G1 X93.827 Y116.242 E0.00871
G1 X93.757 Y116.489 E0.00854
G1 X93.714 Y116.741 E0.0085
G1 X93.7 Y116.982 E0.00803
G1 X93.7 Y118.965 E0.06595
G1 X93.7 Y119 E0.00116
G1 X93.361 Y118.992 E0.01128
G1 X93.327 Y118.987 E0.00108
G1 X93.208 Y118.968 E0.00401
G1 X93.066 Y118.93 E0.00489
G1 X92.927 Y118.876 E0.00496
G1 X92.809 Y118.816 E0.0044
G1 X92.666 Y118.724 E0.00566
G1 X92.566 Y118.642 E0.0043
G1 X92.458 Y118.534 E0.00508
G1 X92.376 Y118.434 E0.0043
G1 X92.284 Y118.291 E0.00566
G1 X92.224 Y118.173 E0.0044
G1 X92.17 Y118.034 E0.00496
G1 X92.132 Y117.892 E0.00489
G1 X92.108 Y117.739 E0.00515
G1 X92.1 Y117.589 E0.005
G1 X92.1 Y102.577 E0.4993
G1 X92.109 Y102.252 E0.01081
G1 X92.131 Y102.112 E0.00471
G1 X92.167 Y101.975 E0.00471
G1 X92.219 Y101.838 E0.00487
G1 X92.286 Y101.704 E0.00498
G1 X92.363 Y101.586 E0.00469
G1 X92.464 Y101.461 E0.00535
G1 X92.576 Y101.349 E0.00527
G1 X92.681 Y101.265 E0.00447
G1 X92.802 Y101.187 E0.00479
G1 X92.937 Y101.12 E0.00501
G1 X93.08 Y101.066 E0.00508
G1 X93.205 Y101.033 E0.0043
G1 X93.325 Y101.014 E0.00404
G1 X93.356 Y101.009 E0.00104
G1 X93.7 Y101 E0.01145
G1 X93.7 Y101.032 E0.00101
G1 X93.7 Y103.018 E0.06605
G1 X93.714 Y103.259 E0.00803
G1 X93.757 Y103.511 E0.0085
G1 X93.827 Y103.758 E0.00854
G1 X93.927 Y104 E0.00871
G0 F3600 X93.838 Y104.043
G0 X97.858 Y115.483
G0 X97.486 Y115.815
;TYPE:WALL-OUTER
G1 F1800 X97.344 Y115.656 E0.00709
G1 X97.185 Y115.514 E0.00709
G1 X97.011 Y115.392 E0.00707
G1 X96.825 Y115.288 E0.00709
G1 X96.627 Y115.206 E0.00713
G1 X96.422 Y115.148 E0.00709
G1 X96.213 Y115.112 E0.00705
G1 X96 Y115.1 E0.0071
G1 X95.787 Y115.112 E0.0071
G1 X95.578 Y115.148 E0.00705
G1 X95.373 Y115.206 E0.00709
G1 X95.175 Y115.288 E0.00713
G1 X94.989 Y115.392 E0.00709
G1 X94.815 Y115.514 E0.00707
G1 X94.656 Y115.656 E0.00709
G1 X94.514 Y115.815 E0.00709
G1 X94.392 Y115.989 E0.00707
G1 X94.288 Y116.175 E0.00709
G1 X94.206 Y116.373 E0.00713
G1 X94.148 Y116.578 E0.00709
G1 X94.112 Y116.787 E0.00705
G1 X94.1 Y116.994 E0.0069
G1 X94.1 Y119.4 E0.08002
G1 X93.511 Y119.4 E0.01959
G1 X93.313 Y119.39 E0.00659
G1 X93.121 Y119.359 E0.00647
G1 X92.948 Y119.313 E0.00595
G1 X92.764 Y119.242 E0.00656
G1 X92.603 Y119.16 E0.00601
G1 X92.438 Y119.053 E0.00654
G1 X92.293 Y118.935 E0.00622
G1 X92.165 Y118.807 E0.00602
G1 X92.047 Y118.662 E0.00622
G1 X91.94 Y118.497 E0.00654
G1 X91.858 Y118.336 E0.00601
G1 X91.787 Y118.152 E0.00656
G1 X91.741 Y117.979 E0.00595
G1 X91.71 Y117.787 E0.00647
G1 X91.7 Y117.589 E0.00659
G1 X91.7 Y102.565 E0.4997
G1 X91.71 Y102.221 E0.01145
G1 X91.74 Y102.024 E0.00663
G1 X91.785 Y101.854 E0.00585
G1 X91.853 Y101.675 E0.00637
G1 X91.936 Y101.509 E0.00617
G1 X92.042 Y101.346 E0.00647
G1 X92.166 Y101.193 E0.00655
G1 X92.305 Y101.055 E0.00651
G1 X92.451 Y100.937 E0.00624
G1 X92.604 Y100.839 E0.00604
G1 X92.774 Y100.754 E0.00632
G1 X92.955 Y100.685 E0.00644
G1 X93.125 Y100.641 E0.00584
G1 X93.321 Y100.61 E0.0066
G1 X93.541 Y100.6 E0.00732
G1 X94.1 Y100.6 E0.01859
G1 X94.1 Y103.006 E0.08002
G1 X94.112 Y103.213 E0.0069
G1 X94.148 Y103.422 E0.00705
G1 X94.206 Y103.627 E0.00709
G1 X94.288 Y103.825 E0.00713
G1 X94.392 Y104.011 E0.00709
G1 X94.514 Y104.185 E0.00707
G1 X94.656 Y104.344 E0.00709
G1 X94.815 Y104.486 E0.00709
G1 X94.989 Y104.608 E0.00707
G1 X95.175 Y104.712 E0.00709
G1 X95.373 Y104.794 E0.00713
G1 X95.578 Y104.852 E0.00709
G1 X95.787 Y104.888 E0.00705
G1 X96 Y104.9 E0.0071
G1 X96.213 Y104.888 E0.0071
G1 X96.422 Y104.852 E0.00705
G1 X96.627 Y104.794 E0.00709
G1 X96.825 Y104.712 E0.00713
G1 X97.011 Y104.608 E0.00709
G1 X97.185 Y104.486 E0.00707
G1 X97.344 Y104.344 E0.00709
G1 X97.486 Y104.185 E0.00709
G1 X97.608 Y104.011 E0.00707
G1 X97.712 Y103.825 E0.00709
G1 X97.794 Y103.627 E0.00713
G1 X97.852 Y103.422 E0.00709
G1 X97.888 Y103.213 E0.00705
G1 X97.9 Y103.006 E0.0069
G1 X97.9 Y100.6 E0.08002
G1 X98.489 Y100.6 E0.01959
G1 X98.687 Y100.61 E0.00659
G1 X98.879 Y100.641 E0.00647
G1 X99.052 Y100.687 E0.00595
G1 X99.236 Y100.758 E0.00656
G1 X99.397 Y100.84 E0.00601
G1 X99.562 Y100.947 E0.00654
G1 X99.706 Y101.064 E0.00617
G1 X99.835 Y101.193 E0.00607
G1 X99.953 Y101.338 E0.00622
G1 X100.06 Y101.503 E0.00654
G1 X100.142 Y101.664 E0.00601
G1 X100.213 Y101.848 E0.00656
G1 X100.259 Y102.021 E0.00595
G1 X100.29 Y102.213 E0.00647
G1 X100.3 Y102.411 E0.00659
G1 X100.3 Y117.589 E0.50482
G1 X100.29 Y117.787 E0.00659
G1 X100.259 Y117.979 E0.00647
G1 X100.213 Y118.152 E0.00595
G1 X100.142 Y118.336 E0.00656
G1 X100.06 Y118.497 E0.00601
G1 X99.953 Y118.662 E0.00654
G1 X99.835 Y118.807 E0.00622
G1 X99.707 Y118.935 E0.00602
G1 X99.562 Y119.053 E0.00622
G1 X99.397 Y119.16 E0.00654
